X:6637
T:The Cock of the North
O:england
M:6/8
L:1/8
R:Jig
K:G
"D7"d2c|"G"BcB BAG|"G"Bcd "C"e2 d|"G"BcB BAB|"D"A3 d2c|"G"BcB BAG|"G"Bcd
"C"e2 d|
"G"BGB "F"A=FA|1 "G"G3:||2 "G"GBc def||"G"g2 d "C"e2 d|"G"g2 d "C"e2 d|"
G"BcB BAG|"D"A3 def|
"G"g2 d e2 d|"G"g2 d e2 d|"G"BGB "F"A=FA|"G"G3 G2d|"G"g2 d "C"e2 d|"G"g2
d "C"e2 d|"G"BcB BAG|
"A"A3 d2c|"G"BcB BAG|"G"Bcd "C"e2 d|"G"BGB "F"A=FA|"G"G3||


